!! 00008] TT[TB
!! Eigene Aufnahme
!!!OTL: Jie zai tianli hao douke
!!!ARE: Asia, China,Anhui, Dangtu
!! Ethnic Group: Han
!! III, 583
!!!SCT: C0174
!!!YEM: Copyright 1995, estate of Helmut Schaffrath.
**kern
*ICvox
*Ivox
*M4/4
*k[]
*C:
{8cc
8a
8a
8g
4a
4cc
=1
8.e
16d
8e
8g
4a
4a}
=2
{8cc
8a
8a
8cc
8dd
8dd
8ee
8dd
=3
8.cc
16cc
8dd
8a
8g
8g
8e
8e}
=4
{8.cc
16cc
8cc
8dd
4a
4g
=5
2.e
4r}
=6
{4.g
8cc
4a
8e
8e
=7
8.cc
16cc
8cc
8dd
4a
4g
=8
2.e
4r}
==
!!!AGN: Xiaodiao, Qingge, Klage, Arbeit
!! Vereinzelt Verzierungen. Takt 1 leicht variiert gesungen.
!!    Modus Jiao.
!!    In der feudalen Gesellschaft wurde ein Maedchen mit einem viel
!!    juengeren Kind (!) verheiratet. Waehrend der Feldarbeit trifft sie
!!    ihren Geliebten und beklagt ihr Schicksal. Saengerin: Huang Bai
!!    Pinyin-Text der ersten Strophe vorhanden!
!!!ONB: ESAC (Essen Associative Code) Database: CHINA_043
!!!AMT: simple quadruple
!!!AIN: vox
!!!EED: Helmut Schaffrath
!!!EEV: 1.0
*-
